img/link-icon-games-industry-biz.svg

<svg width="650" height="650" fill="none" xmlns="http://www.w3.org/2000/svg"><path fill="#fff" d="M0 0H650V650H0z"/><path d="M315.183 372.875a101.058 101.058 0 0 0 43.411-26.432 109.522 109.522 0 0 0 31.182-77.01 113.625 113.625 0 0 0-10.742-48.337 86.263 86.263 0 0 0-17.555-24.322 117.728 117.728 0 0 0-43.603-28.849 12.617 12.617 0 0 0-15.447 6.189 12.607 12.607 0 0 0-1.364 5.842 12.462 12.462 0 0 0 4.734 9.867 83.95 83.95 0 0 1 6.737 5.861c14.01 13.56 21.02 38.261 21.03 74.102 0 35.596-6.585 60.598-19.757 75.007a72.356 72.356 0 0 1-8.34 7.796 11.216 11.216 0 0 0-4.396 8.716v1.197a10.823 10.823 0 0 0 4.415 8.76 10.813 10.813 0 0 0 9.679 1.59" fill="#000"/><path d="M357.875 452.692a495.537 495.537 0 0 0-92.071-11.071c-36.491-1.939-60.416-4.847-71.777-8.724-11.606-3.627-17.407-9.921-17.401-18.882 0-13.78 13.322-23.031 39.966-27.752a19.371 19.371 0 0 0 15.806-19.128 20.111 20.111 0 0 0-7.473-15.345 67.887 67.887 0 0 1-7.343-7.166c-12.788-14.532-19.182-37.414-19.182-68.647 0-33.667 5.56-58.856 16.681-75.567a55.061 55.061 0 0 1 13.143-13.926 10.824 10.824 0 0 0 4.204-8.739 11.157 11.157 0 0 0-4.739-9.217 11.16 11.16 0 0 0-10.276-1.348 123.37 123.37 0 0 0-37.726 23.255 99.593 99.593 0 0 0-35.708 77.187 103.184 103.184 0 0 0 17.409 58.488 155.572 155.572 0 0 0 51.844 46.496c-44.23 8.235-66.345 28.214-66.345 59.938a46.928 46.928 0 0 0 23.202 40.319c15.462 10.65 49.178 17.067 101.147 19.251 45.197 1.933 76.619 7.744 94.266 17.432 17.647 9.921 40.848 26.992 40.848 51.215a74.792 74.792 0 0 1-20.992 48.337l-.529.591a6.19 6.19 0 0 0-1.258 3.613 6.357 6.357 0 0 0 1.855 4.495 6.358 6.358 0 0 0 4.49 1.866 6.241 6.241 0 0 0 4.12-1.619l.545-.453a90.076 90.076 0 0 0 33.997-73.142 92.966 92.966 0 0 0-19.181-58.841 91.579 91.579 0 0 0-51.476-32.878m142.658-90.164c-19.504-.676-21.483-4.32-21.483-4.32a17.444 17.444 0 0 1-7.113-12.775c-.655-5.565-.982-19.074-.982-40.527V174.917a8.56 8.56 0 0 0-3.051-6.565 8.554 8.554 0 0 0-6.992-1.875l-58.312 10.397a5.66 5.66 0 0 0-4.673 5.585v.875a5.665 5.665 0 0 0 5.663 5.67h.959a64.653 64.653 0 0 1 19.243 1.964 16.151 16.151 0 0 1 8.823 9.821c2.205 5.243 3.31 19.652 3.315 43.227v60.913c0 22.44-.287 35.995-.86 40.665a16.613 16.613 0 0 1-6.138 12.038 57.291 57.291 0 0 1-25.526 4.995 5.67 5.67 0 1 0 .176 11.34h96.751a5.656 5.656 0 0 0 5.227-3.503 5.65 5.65 0 0 0 .428-2.167v-.069a5.669 5.669 0 0 0-5.455-5.662zm-58.567-238.62a24.546 24.546 0 0 0 22.727-15.114 24.552 24.552 0 1 0-22.727 15.114z" fill="#000"/></svg>

<svg width="650" height="650" viewBox="0 0 650 650" fill="none" xmlns="http://www.w3.org/2000/svg">
<rect width="650" height="650" fill="white"/>
<path d="M315.183 372.875C331.669 367.906 346.612 358.808 358.594 346.443C378.699 325.865 389.9 298.202 389.776 269.433C389.792 252.727 386.125 236.223 379.034 221.096C374.648 212.026 368.706 203.794 361.479 196.774C349.291 184.011 334.389 174.152 317.876 167.925C315.963 167.25 313.915 167.046 311.906 167.331C309.897 167.616 307.987 168.382 306.337 169.562C304.687 170.743 303.347 172.304 302.429 174.114C301.511 175.923 301.043 177.927 301.065 179.956C301.052 181.852 301.471 183.726 302.292 185.436C303.112 187.146 304.312 188.646 305.799 189.823C308.147 191.656 310.396 193.612 312.536 195.684C326.546 209.244 333.556 233.945 333.566 269.786C333.566 305.382 326.981 330.384 313.809 344.793C311.239 347.607 308.45 350.214 305.469 352.589C304.127 353.616 303.034 354.934 302.272 356.443C301.511 357.953 301.101 359.615 301.073 361.305V362.502C301.067 364.207 301.463 365.889 302.23 367.411C302.998 368.933 304.114 370.253 305.488 371.262C306.862 372.271 308.455 372.941 310.137 373.217C311.819 373.493 313.543 373.368 315.167 372.852" fill="black"/>
<path d="M357.875 452.692C327.598 446.132 296.773 442.425 265.804 441.621C229.313 439.682 205.388 436.774 194.027 432.897C182.421 429.27 176.62 422.976 176.626 414.015C176.626 400.235 189.948 390.984 216.592 386.263C221.048 385.428 225.071 383.057 227.959 379.561C230.847 376.066 232.418 371.669 232.398 367.135C232.354 364.186 231.662 361.282 230.371 358.63C229.079 355.978 227.22 353.643 224.925 351.79C222.3 349.59 219.845 347.194 217.582 344.624C204.794 330.092 198.4 307.21 198.4 275.977C198.4 242.31 203.96 217.121 215.081 200.41C218.615 195.036 223.063 190.323 228.224 186.484C229.556 185.455 230.63 184.129 231.36 182.612C232.09 181.095 232.456 179.428 232.428 177.745C232.442 175.94 232.019 174.158 231.193 172.553C230.368 170.948 229.165 169.566 227.689 168.528C226.213 167.489 224.507 166.824 222.717 166.589C220.927 166.354 219.107 166.557 217.413 167.18C203.537 172.591 190.755 180.47 179.687 190.435C168.406 199.867 159.354 211.68 153.18 225.026C147.006 238.371 143.864 252.918 143.979 267.622C143.752 288.427 149.821 308.815 161.388 326.11C174.934 345.327 192.659 361.224 213.232 372.606C169.002 380.841 146.887 400.82 146.887 432.544C146.917 440.701 149.072 448.71 153.141 455.78C157.209 462.851 163.051 468.739 170.089 472.863C185.551 483.513 219.267 489.93 271.236 492.114C316.433 494.047 347.855 499.858 365.502 509.546C383.149 519.467 406.35 536.538 406.35 560.761C405.449 578.886 397.988 596.066 385.358 609.098L384.829 609.689C384.039 610.73 383.598 611.995 383.571 613.302C383.57 614.137 383.733 614.963 384.051 615.734C384.37 616.505 384.837 617.206 385.426 617.797C386.015 618.387 386.715 618.856 387.485 619.176C388.256 619.497 389.082 619.662 389.916 619.663C391.441 619.645 392.906 619.069 394.036 618.044L394.581 617.591C405.542 608.881 414.322 597.735 420.224 585.038C426.125 572.341 428.986 558.444 428.578 544.449C429.092 523.22 422.323 502.455 409.397 485.608C396.506 469.08 378.336 457.476 357.921 452.73" fill="black"/>
<path d="M500.579 362.566C481.075 361.89 479.096 358.246 479.096 358.246C477.056 356.758 475.364 354.845 474.136 352.64C472.908 350.434 472.173 347.988 471.983 345.471C471.328 339.906 471.001 326.397 471.001 304.944V174.917C471.003 173.666 470.731 172.43 470.204 171.296C469.677 170.162 468.907 169.157 467.95 168.352C466.992 167.547 465.87 166.963 464.662 166.639C463.454 166.315 462.189 166.26 460.958 166.477L402.646 176.874C401.335 177.106 400.147 177.794 399.293 178.816C398.438 179.837 397.971 181.127 397.973 182.459V183.334C397.972 184.078 398.118 184.815 398.402 185.503C398.686 186.191 399.103 186.816 399.629 187.343C400.155 187.869 400.78 188.287 401.467 188.572C402.155 188.857 402.891 189.004 403.636 189.004H404.595C411.071 188.69 417.558 189.352 423.838 190.968C425.917 191.891 427.778 193.243 429.299 194.936C430.819 196.628 431.965 198.623 432.661 200.789C434.866 206.032 435.971 220.441 435.976 244.016V304.929C435.976 327.369 435.689 340.924 435.116 345.594C434.993 347.918 434.383 350.191 433.325 352.265C432.268 354.338 430.787 356.167 428.978 357.632C420.965 361.232 412.231 362.941 403.452 362.627C401.948 362.65 400.515 363.27 399.468 364.35C398.421 365.43 397.846 366.881 397.87 368.385C397.893 369.889 398.513 371.322 399.593 372.369C400.673 373.416 402.124 373.99 403.628 373.967H500.379C501.123 373.966 501.859 373.819 502.546 373.533C503.232 373.248 503.856 372.83 504.381 372.303C504.906 371.777 505.322 371.152 505.606 370.464C505.89 369.777 506.035 369.041 506.034 368.297V368.228C506.033 366.762 505.464 365.353 504.447 364.298C503.43 363.242 502.044 362.621 500.579 362.566Z" fill="black"/>
<path d="M442.012 123.946C446.871 123.958 451.624 122.529 455.669 119.838C459.715 117.148 462.872 113.318 464.739 108.832C466.607 104.347 467.102 99.4085 466.162 94.6418C465.221 89.8751 462.888 85.4946 459.456 82.0548C456.025 78.6149 451.651 76.2704 446.886 75.3181C442.122 74.3657 437.182 74.8484 432.692 76.7049C428.202 78.5613 424.364 81.7082 421.664 85.7472C418.963 89.7861 417.521 94.5354 417.521 99.394C417.521 105.895 420.1 112.131 424.691 116.733C429.282 121.336 435.511 123.93 442.012 123.946Z" fill="black"/>
</svg>
